X: 42482
T: Wexford Minstrel, The
R: reel
M: 4/4
K: Dmajor
AG|FDFA d2 B/=c/^c|dBAF GEEG|FDFA d/c/d AF|GBAG FDDE|
FDFA d2 B/=c/^c|dBAF GEEG|FDFA d z Ad|egfe fddf||
afef d2 e/f/g|afef dB ~B2|afef d/c/d AF|GBAG FD ~D2|
afef d2 e/f/g|afef dB ~B2|AFAB =cedc|A/=c/A GE FD D2||

